X: 22980
T: Lasses Of Ancrum
R: strathspey
M: 4/4
K: Dminor
|:A<d d>c A/c/d d>e|c>d e>f g/f/e/d/ c>e|
A<d d>c A<d dc/A/|B>G A>F D/D/D D2:|
f>g a/g/f/e/ f>d e>c|A>B A>G F>G A>c|
f>g a/g/f/e/ f>d e>c|B>G A>F D/D/D D2|
f>g a/g/f/e/ f>d e>c|A>B A>G F>G A>g|
a>f g>e f>d e>c|B>G A>F D/D/D D2||

